public/images/ai28.svg

<svg width="100" height="100" viewBox="0 0 100 100" fill="none" xmlns="http://www.w3.org/2000/svg">
<path d="M7.64474 40.5918V44.8882H13.3947V46.8165H7.64474V55.0471C7.64474 56.16 7.85526 56.9494 8.28947 57.3894C8.72368 57.8294 9.47368 58.0494 10.5395 58.0494H13.3816V60.0424H10.3026C8.40789 60.0424 7.06579 59.6671 6.28947 58.9165C5.51316 58.1659 5.11842 56.8718 5.11842 55.0471V46.8294H1V44.9012H5.11842V40.5918H7.64474ZM30.5921 50.66V60.0424H28.0526V50.66C28.0526 49.3012 27.8158 48.2918 27.3289 47.6576C26.8421 47.0235 26.0789 46.7 25.0395 46.7C23.8553 46.7 22.9474 47.1141 22.3026 47.9424C21.6711 48.7576 21.3553 49.9482 21.3553 51.4882V60.0553H18.8289V39H21.3553V47.1659C21.8026 46.2988 22.4079 45.6518 23.1842 45.1988C23.9605 44.7459 24.8684 44.5259 25.9211 44.5259C27.4868 44.5259 28.6579 45.0306 29.4342 46.0529C30.2105 47.0753 30.5921 48.6024 30.5921 50.66ZM59.6842 52.4329H58.8421C57.3684 52.4329 56.25 52.6918 55.5 53.2094C54.7632 53.7141 54.3816 54.4776 54.3816 55.4871C54.3816 56.3929 54.6579 57.1047 55.2237 57.6094C55.7895 58.1141 56.5526 58.3729 57.5526 58.3729C58.9474 58.3729 60.0395 57.8941 60.8421 56.9494C61.6447 55.9918 62.0395 54.6718 62.0526 53.0024V52.4459H59.6842V52.4329ZM64.5921 51.4106V60.0553H62.0526V57.8035C61.5132 58.7094 60.8289 59.3694 60 59.8094C59.1842 60.2365 58.1842 60.4435 57.0132 60.4435C55.4474 60.4435 54.1974 60.0165 53.2632 59.1494C52.3289 58.2694 51.8553 57.1047 51.8553 55.6424C51.8553 53.96 52.4342 52.6788 53.5789 51.7988C54.7368 50.9188 56.4211 50.4918 58.6579 50.4918H62.0526V50.1035C62.0395 48.9 61.7368 48.02 61.1184 47.4765C60.5 46.92 59.5263 46.6482 58.1711 46.6482C57.3026 46.6482 56.4342 46.7647 55.5526 47.0106C54.6711 47.2565 53.8158 47.6059 52.9868 48.0847V45.5871C53.9211 45.2376 54.8158 44.9788 55.6711 44.7976C56.5263 44.6165 57.3684 44.5259 58.1711 44.5259C59.4474 44.5259 60.5263 44.7071 61.4342 45.0824C62.3421 45.4576 63.0789 46.0012 63.6316 46.7518C63.9737 47.2047 64.2237 47.7612 64.3684 48.4341C64.5263 49.0812 64.5921 50.0776 64.5921 51.4106ZM81.4342 50.66V60.0424H78.8947V50.66C78.8947 49.3012 78.6579 48.2918 78.1711 47.6576C77.6842 47.0235 76.9211 46.7 75.8816 46.7C74.6974 46.7 73.7895 47.1141 73.1447 47.9424C72.5132 48.7576 72.1974 49.9482 72.1974 51.4882V60.0553H69.6711V44.9012H72.1842V47.1788C72.6316 46.3118 73.2368 45.6647 74.0132 45.2118C74.7895 44.7588 75.6974 44.5388 76.75 44.5388C78.3158 44.5388 79.4868 45.0435 80.2632 46.0659C81.0395 47.0753 81.4342 48.6024 81.4342 50.66ZM92.3947 46.6482C91.1053 46.6482 90.1447 47.14 89.4737 48.1235C88.8158 49.1071 88.4868 50.5565 88.4868 52.4976C88.4868 54.4129 88.8158 55.8753 89.4737 56.8718C90.1316 57.8553 91.1053 58.3471 92.3947 58.3471C93.6842 58.3471 94.6579 57.8553 95.329 56.8718C95.9868 55.8753 96.3158 54.4259 96.3158 52.4976C96.3158 50.5694 95.9868 49.1071 95.329 48.1235C94.6711 47.14 93.6842 46.6482 92.3947 46.6482ZM92.3947 44.5388C94.5263 44.5388 96.1579 45.2247 97.2895 46.5835C98.4211 47.9424 99 49.9094 99 52.4976C99 55.0859 98.4342 57.0659 97.3026 58.4247C96.1711 59.7835 94.5395 60.4565 92.3947 60.4565C90.2632 60.4565 88.6316 59.7835 87.5 58.4247C86.3684 57.0659 85.8026 55.0859 85.8026 52.4976C85.8026 49.9224 86.3684 47.9424 87.5 46.5835C88.6184 45.2118 90.2632 44.5388 92.3947 44.5388Z" fill="#11557C"/>
<path d="M40.3946 60.8575C38.3552 60.4693 37.171 59.9387 36.0131 58.3211C35.1841 57.1434 35.0525 56.1858 35.0262 54.5293C35.0131 53.7399 35.0394 53.5717 35.2104 53.1834L35.3946 52.7434L35.6183 53.2222C35.8815 53.7658 36.1315 54.154 36.2894 54.2575C36.3815 54.3222 36.4078 54.1928 36.4604 53.3775C36.4999 52.8599 36.5394 52.2775 36.5788 52.0964C36.6315 51.7599 36.6315 51.7599 37.0788 51.6046C37.921 51.294 39.4999 51.2422 42.3288 51.4752C43.6315 51.5787 46.421 51.6305 46.7104 51.3846C47.0131 51.1258 47.0525 51.0093 46.9604 50.2846C46.842 49.4305 46.9736 49.2493 46.6052 48.5375C45.6578 46.6999 44.092 45.9234 42.0131 45.9105C40.1446 45.9105 38.6446 46.5834 37.7367 48.0717C36.9341 49.3917 36.5788 50.8022 36.3683 53.494L36.3157 54.2446L36.1446 53.9987C35.2894 52.7952 34.7631 50.6987 35.1315 49.107C35.421 47.8646 35.9867 46.8034 36.9341 45.7681C37.7499 44.8752 39.0788 44.3705 40.671 44.0599C41.6973 43.8658 42.4078 43.8658 43.4341 44.0599C45.0394 44.3575 46.1973 44.927 46.9999 45.8199C47.9341 46.8422 48.5131 47.9293 48.7894 49.1199C48.9736 49.9222 48.9999 51.1517 48.8552 51.5399C48.7236 51.8764 47.7104 52.9764 47.6841 52.834C47.671 52.7693 47.6973 52.6658 47.7499 52.6011C47.8946 52.407 47.7631 52.3293 47.5525 52.4717C47.3946 52.5881 47.3552 52.5881 47.2631 52.4975C47.0657 52.3164 46.9867 52.5105 47.171 52.7305C47.3815 52.9893 47.3815 53.0799 47.1841 53.0799C47.092 53.0799 47.0131 53.1058 46.9867 53.1317C46.7894 53.3646 43.8157 53.4164 41.4473 53.2352C39.6973 53.0928 38.3025 53.1317 37.9867 53.3128C37.7236 53.4552 37.3683 53.9858 37.2499 54.4128C37.1315 54.814 37.1973 56.0434 37.3683 56.5352C37.5262 57.027 38.1052 57.7517 38.7104 58.2175C40.3946 59.5117 43.1841 59.5246 44.8815 58.2564C45.7367 57.6222 46.421 56.587 46.2236 56.2505C46.171 56.1728 46.1315 56.0046 46.1315 55.8881C46.1315 55.6811 46.3815 55.2411 46.5394 55.1634C46.7631 55.0599 47.0262 54.6458 47.0262 54.374C47.0262 54.0634 47.1315 53.8693 47.3025 53.8693C47.5657 53.8693 47.5262 53.0799 47.2631 52.7434C47.0525 52.4846 47.0788 52.4328 47.3157 52.6011C47.4736 52.7046 47.5131 52.7175 47.5131 52.6528C47.5131 52.6011 47.5788 52.5234 47.6446 52.4717C47.7631 52.394 47.7762 52.407 47.7104 52.5105C47.671 52.5752 47.6446 52.8987 47.6578 53.2222C47.6841 53.7658 47.6973 53.8305 47.8683 53.934C48.0262 54.0246 48.0657 54.1152 48.092 54.4517C48.1183 54.7364 48.2104 54.9822 48.3946 55.267C48.6052 55.6034 48.6446 55.7328 48.6183 55.9528C48.592 56.1081 48.4999 56.2764 48.421 56.354C48.2236 56.5222 47.3946 57.5834 47.3157 57.7775C47.171 58.1528 46.6578 58.9293 46.3288 59.2917C45.8157 59.8611 45.2762 60.2105 44.3288 60.547C42.9078 61.0258 41.8025 61.1164 40.3946 60.8575Z" fill="#11557C"/>
</svg>

<svg xmlns="http://www.w3.org/2000/svg" width="100" height="100" fill="none"><path fill="#11557C" d="M7.645 40.592v4.296h5.75v1.928h-5.75v8.231c0 1.113.21 1.902.644 2.342q.653.66 2.25.66h2.843v1.993h-3.08c-1.894 0-3.236-.375-4.013-1.126s-1.17-2.044-1.17-3.869V46.83H1v-1.928h4.118v-4.31zM30.592 50.66v9.382h-2.54V50.66c0-1.359-.236-2.368-.723-3.002-.487-.635-1.25-.958-2.29-.958-1.184 0-2.092.414-2.736 1.242-.632.816-.948 2.006-.948 3.546v8.567H18.83V39h2.526v8.166c.448-.867 1.053-1.514 1.83-1.967.776-.453 1.683-.673 2.736-.673 1.566 0 2.737.505 3.513 1.527s1.158 2.55 1.158 4.607m29.092 1.773h-.842c-1.474 0-2.592.259-3.342.776-.737.505-1.118 1.269-1.118 2.278 0 .906.276 1.618.842 2.122.566.505 1.329.764 2.329.764 1.394 0 2.486-.479 3.29-1.424.802-.957 1.196-2.277 1.21-3.947v-.556h-2.369zm4.908-1.022v8.644h-2.54v-2.251c-.539.905-1.223 1.565-2.052 2.005-.816.428-1.816.635-2.987.635-1.566 0-2.816-.428-3.75-1.295-.934-.88-1.408-2.044-1.408-3.507 0-1.682.58-2.963 1.724-3.843 1.158-.88 2.842-1.307 5.079-1.307h3.395v-.389c-.014-1.203-.316-2.083-.935-2.626-.618-.557-1.592-.829-2.947-.829-.868 0-1.737.117-2.618.363-.882.245-1.737.595-2.566 1.074v-2.498c.934-.35 1.829-.608 2.684-.79a12 12 0 0 1 2.5-.271c1.276 0 2.355.181 3.263.556s1.645.92 2.198 1.67c.342.453.592 1.01.736 1.682.158.647.224 1.644.224 2.977m16.842-.751v9.382h-2.54V50.66c0-1.359-.236-2.368-.723-3.002-.487-.635-1.25-.958-2.29-.958-1.184 0-2.091.414-2.736 1.242-.632.816-.948 2.006-.948 3.546v8.567h-2.526V44.901h2.513v2.278c.448-.867 1.053-1.514 1.83-1.967.776-.453 1.683-.673 2.736-.673 1.566 0 2.737.505 3.513 1.527.776 1.01 1.171 2.536 1.171 4.594m10.96-4.012c-1.289 0-2.25.492-2.92 1.475-.658.984-.987 2.434-.987 4.375 0 1.915.329 3.377.987 4.374q.987 1.475 2.92 1.475c1.29 0 2.264-.492 2.935-1.475.658-.997.987-2.446.987-4.374 0-1.929-.33-3.39-.987-4.374-.658-.984-1.645-1.476-2.934-1.476m0-2.11c2.132 0 3.764.687 4.895 2.046C98.422 47.942 99 49.909 99 52.498s-.566 4.568-1.697 5.927-2.763 2.032-4.908 2.032c-2.132 0-3.763-.674-4.895-2.032-1.132-1.36-1.697-3.34-1.697-5.927 0-2.576.565-4.556 1.697-5.914 1.118-1.372 2.763-2.045 4.895-2.045M40.395 60.858c-2.04-.389-3.224-.92-4.382-2.537-.829-1.178-.96-2.135-.987-3.792-.013-.79.013-.957.184-1.346l.185-.44.223.48c.264.543.514.931.671 1.035.093.064.119-.065.171-.88.04-.518.08-1.1.119-1.282.053-.336.053-.336.5-.491.842-.311 2.42-.363 5.25-.13 1.303.104 4.092.155 4.381-.09.303-.26.343-.376.25-1.1-.118-.854.014-1.036-.355-1.747-.947-1.838-2.513-2.615-4.592-2.627-1.868 0-3.368.672-4.276 2.16-.803 1.32-1.158 2.731-1.369 5.423l-.052.75-.171-.245c-.856-1.204-1.382-3.3-1.014-4.892.29-1.242.856-2.304 1.803-3.339.816-.893 2.145-1.398 3.737-1.708 1.026-.194 1.737-.194 2.763 0 1.605.297 2.763.867 3.566 1.76.934 1.022 1.513 2.11 1.79 3.3.184.802.21 2.032.065 2.42-.131.336-1.145 1.436-1.17 1.294a.32.32 0 0 1 .065-.233c.145-.194.013-.272-.197-.13-.158.117-.198.117-.29.027-.197-.182-.276.013-.092.233.21.258.21.349.013.349-.092 0-.17.026-.197.052-.198.233-3.171.284-5.54.103-1.75-.142-3.145-.103-3.46.078-.263.142-.619.673-.737 1.1-.118.401-.053 1.63.118 2.122.158.492.737 1.217 1.342 1.683 1.685 1.294 4.474 1.307 6.172.038.855-.634 1.539-1.669 1.342-2.005a.8.8 0 0 1-.092-.363c0-.207.25-.647.407-.725.224-.103.487-.517.487-.789 0-.31.105-.505.276-.505.264 0 .224-.79-.039-1.126-.21-.258-.184-.31.053-.142.158.104.197.117.197.052 0-.052.066-.13.132-.181.118-.078.131-.065.065.038-.039.065-.065.389-.052.712.026.544.04.608.21.712.158.09.198.181.224.518.026.284.118.53.303.815.21.336.25.466.223.686a.83.83 0 0 1-.197.401c-.197.168-1.026 1.23-1.105 1.424-.145.375-.658 1.151-.987 1.514-.513.57-1.053.919-2 1.255-1.421.479-2.526.57-3.934.31"/></svg>
